X: 12536
T: Farewell To Killeavy
R: waltz
M: 3/4
K: Dmajor
(DGA)|:B4 d2|B4 (AG|A3) B>AG|E3 (DGA)|
B4 d2|B3 AG2|A6-|A3 (DGA)|
B4 d2|B4 AG|A3 B>AG|E4 d2|
B3 AG2|A4 D2|E G2-G3-|1 G3 (DGA):|2 G3 zd2||
e<d- d2 B2|B4 AG|A3 B>AG|A4 d2|
e<d- d2 B2|B4 AG|A6-|A3 zd2|
e<d- d2 B2|B4 AG|A3 B>AG|E4 d2|
B3 AG2|A4 D2|E G2- G3-|G3 zd2|
e<d- d2 B2|B4 AG|A3 B>AG|A4 d2|
e<d- d2 B2|d4 ed|B3 AG2|A3 (DGA)|
B4 d2|B4 AG|A3 B>AG|E4 d2|
B3 AG2|A4 D2|E G2-G3-|G3 zd2|
B3 AG2|A4 D2|EG2-G3-|G3 z3||

